dist/assets/image/Moon.svg

<svg width="28" viewBox="0 0 40 40" fill="none" xmlns="http://www.w3.org/2000/svg">
<path d="M20.5 36.6667H20.3333V36.6667C15.7158 36.6315 11.3067 34.7393 8.09999 31.4167H8.09999C2.00322 24.8968 1.81617 14.825 7.66666 8.08333L7.66666 8.08332C9.48646 6.04389 11.7742 4.47679 14.3333 3.51666V3.51666C14.9432 3.28199 15.6339 3.42535 16.1 3.88332V3.88332C16.5307 4.3225 16.6844 4.96319 16.5 5.54999V5.54999C14.6352 10.6571 15.8959 16.3819 19.7333 20.2333V20.2333C23.6054 24.0579 29.3313 25.3159 34.45 23.4667V23.4667C35.3182 23.161 36.2699 23.6171 36.5755 24.4854C36.7045 24.852 36.7014 25.2521 36.5666 25.6167V25.6167C35.7153 27.8895 34.3852 29.9528 32.6666 31.6667H32.6666C29.4379 34.8858 25.0593 36.6852 20.5 36.6667L20.5 36.6667Z" fill="#161819"/>
</svg>

<svg xmlns="http://www.w3.org/2000/svg" width="28" viewBox="0 0 40 40" fill="none"><path d="M20.5 36.667h-.167c-4.618-.035-9.027-1.927-12.233-5.25-6.097-6.52-6.284-16.592-.433-23.333 1.82-2.04 4.108-3.607 6.667-4.567.6-.235 1.3-.09 1.767.367.43.44.584 1.08.4 1.667a14 14 0 0 0 3.233 14.683c3.872 3.825 9.598 5.083 14.717 3.233.868-.306 1.82.15 2.125 1.02.13.367.126.767-.01 1.13a16.93 16.93 0 0 1-3.9 6.05c-3.23 3.22-7.607 5.02-12.167 5z" fill="#161819"/></svg>
